!!!ONB: MCCC : IJH0468_03 : Extracted Monophonic Melody
!!!COM: Haydn, Joseph
!!!OPR: String Quartet in G minor
!!!OMV: 3
!!!SCT: Hob.III:74 ; Op.74 No.3
!!!ODT: 1793///
**kern
*thru
*k[f#]
*G:
*clefF
*M3/4
4ee
=1
4dd
4cc
4b
=2
4a
4g
4f#
=3
8g
8d
8a
8d
8b
8d
=4
4cc
2r
=5
4r
4r
4ee
=6
4dd
4cc#
4dd
=7
8ee
8bb
8dd
8aa
8a
8cc#
=8
4dd
4r
4ee
=9
4ff#
4gg
4aa
=10
4bb
4ccc
4gg#
=11
4aa
4bb
4ccc
=12
4ddd
4eee
4ccc
=13
4ddd
4bb
4ccc
=14
4bb
4aa
4gg
=15
4ff#
4ee
4dd
=16
4cc#
4dd
4ee
=17
4dd
4cc
4b
=18
4a
4b
4r
=19
2.r
=20
4r
4r
4g
=21
2a
4b
=22
4cc
4dd
4ee
=23
8dd
8b
8gg
8dd
8bb
8gg
=24
4ddd
4ddd
4ddd
=25
4ddd
4ddd
4ddd
=26
4ddd
4ddd
4ddd
=27
4ddd
4ddd
4ddd
=28
8bb
8ddd
8gg
8bb
8ee
8gg
=29
8cc
8ee
8a
8cc
8f#
8a
=30
8d
8f#
8a
8f#
8g
8dd
=31
8d
8f#
8a
8f#
8g
8dd
=32
8d
8f#
8a
8f#
8g
8gg
=33
8ee
8a
8dd
8g
8cc
8f#
=34
4g
4r
*g:
4d
=35
4dd
4dd
4dd
=36
4dd
4dd
4dd
=37
4ee-
8gg
8ee-
4cc#
=38
4dd
4a
4b
=39
4cc
4g
4a
=40
2.b-
=41
2b
4r
=42
8a
8aa
8ff
8dd
8a
8f
=43
8e
8b-
8g
8e
8c#
8A
=44
4d
4r
4ff
=45
4ee
4r
4aa
=46
4dd
4r
4B-
=47
4b-
4b-
4b-
=48
4b-
4a
4a-
=49
2.g
=50
4cc
4b-
4a
=51
4g
4a
4b
=52
2.cc[
=53
4cc]
4b-
4b-[
=54
4b-]
4a
4f
=55
8gg
8ff
8ee-
8cc
8a
8e-
=56
8d
8gg
8ff
8dd
8b-
8f
=57
8e
8bb-
8gg
8ee
8dd-
8b-
=58
8a
8ee-
8cc
8a
8f
8e-
=59
8d
8b-
8e-
8cc
8f
8dd
=60
8g
8ee-
8a
8ee-
8dd
8b-
=61
8g
8cc
8f
8b-
8e-
8a
=62
4b-
4r
4d
=63
4dd
4dd
4dd
=64
4dd
4dd
4dd
=65
4ee-
8gg
8ee-
4cc
=66
2.b
=67
2.cc
=68
4b
4b-
4a
=69
4a-
4g
4g
=70
8g
8ddd
8bb-
8gg
8dd
8b-
=71
8a
8ee-
8cc
8a
8f#
8d
=72
4g
4r
4b-
=73
4a
4r
4dd
=74
4g
2r
==
*-
